X: 0
T: Martyn, 77.77 D
Z: Simeon B. Marsh, 1834
Z: Public domain
L: 1/4
M: 3/4
Q: 1/4=115
V: P1_1 name="Staff"
V: P1_2
%%MIDI program 1 0
V: P2_1 name="Martyn, 77.77 D"
V: P2_2
%%MIDI program 2 91
K: F
% Extracting voice 1 from part P1
[V: P1_1]  [(F(A] [F/A/] [FA] F/ | | | | F3) | [(F(A] [F/A/] [FA] F/ | | | | F3) | | | | | | | [(F(A] [F/A/] [FA] F/ | | | [F3/A3/] G3/ | F4)|]
% Extracting voice 2 from part P1
[V: P1_2]  x2  F/ | | | | F3 | x2  F/ | | | | F3 | | | | | | | x2  F/ | | | x1  F E/ | F4|]
% Extracting voice 1 from part P2
[V: P2_1]  | | | | | | | | | | | [B,,3/B,3/] B,3/ D,/ | | | | | | | | C3/ [C,3/B,3/] ||]
% Extracting voice 2 from part P2
[V: P2_2]  | | | | | | | | | | | x1  B,, | | | | | | | | C3/ x1  ||]

